X:1
T:Manitoba Golden Boy
C:Andy De Jnrlis
L:1/8
M:2/4
I:linebreak $
K:D
V:1 treble
V:1
 FG |"D" A2 d>e |"D7" f3 c/d/ |"G" ed cB |"D" A3 F |"A7" G2 e>e | e3 G |"D" F2 d>d | d2 FG |$
 A2 d>e |"D7"  f3 c/d/ |"G" ed cB |"D" A3 F |"A7" G2 ed | cA Bc |"D" d4- | d2 e>f |$
 "G"gB gB | g2 a>a |"D" fA fA | f2 g>f |"A7"  eA cd | eg fe |"D" f4-  |"D7" f2 e>f |$
 "G" gB gB | g2 a>g |"D" fA fA | f2 g>f |"A7" eA cd | eg fe |"D" d4-  | d2 |]
